!!!COM: Beethoven
!!!OTL: 7 Variations on a Quartet by Winter
!!!Variation: Variation 3 a
**function	**harm	**kern	**kern
*	*	*clefG2	*clefG2
*	*	*k[b-]	*k[b-]
*M2/4	*M2/4	*M2/4	*M2/4
*F:	*F:	*F:	*F:
4T	4I	8cc	16r
.	.	.	16cc'LL
.	.	8r	16dd'
.	.	.	16ee'JJ
=148	=148	=148	=148
2T	2I	8a	16r
.	.	.	16ff'LL
.	.	8r	16gg'
.	.	.	16aa'JJ
.	.	8f	16r
.	.	.	16aa'LL
.	.	8r	16bb-'
.	.	.	16ccc'JJ
=149	=149	=149	=149
4T	4V7b	8e	16r
.	.	.	16ccc'LL
.	.	8r	16gg'
.	.	.	16bb-'JJ
4T	4I	8f	16r
.	.	.	16bb-'LL
.	.	8r	16ff'
.	.	.	16aa'JJ
=150	=150	=150	=150
2T	2V	8cL	16r
.	.	.	16aa'LL
.	.	8cJ	16ee'
.	.	.	16gg'JJ
.	.	8cL	16dd'LL
.	.	.	16ff'
.	.	8cJ	16cc'
.	.	.	16ee'JJ
=151	=151	=151	=151
4T	4V	8c	16dd'LL
.	.	.	16ff'
.	.	8r	16ee'
.	.	.	16gg'JJ
4T	4I	8cc	16r
.	.	.	16cc'LL
.	.	8r	16dd'
.	.	.	16ee'JJ
=152	=152	=152	=152
2T	2I	8a	16r
.	.	.	16ff'LL
.	.	8r	16gg'
.	.	.	16aa'JJ
.	.	8f	16r
.	.	.	16aa'LL
.	.	8r	16bb-'
.	.	.	16ccc'JJ
=153	=153	=153	=153
4T	4V7b	8e	16r
.	.	.	16ccc'LL
.	.	8r	16gg'
.	.	.	16bb-'JJ
4T	4I	8f	16r
.	.	.	16bb-'LL
.	.	8r	16ff'
.	.	.	16aa'JJ
*	*	*clefF4	*
=154	=154	=154	=154
4P	4iib	8B-L	16r
.	.	.	16aa'LL
.	.	8B-J	16dd'
.	.	.	16gg'JJ
4D	4V7	8cL	16r
.	.	.	16ff'LL
.	.	8CJ	16b-'
.	.	.	16ee'JJ
=155	=155	=155	=155
4T	4I	8FL	16r
.	.	.	16gg'LL
.	.	8FFJ	16a'
.	.	.	16ff'JJ
*-	*-	*-	*-
